albertroad.htmlalbertroad.htmlalbertroad.htmlalbertroad.htmlalbertroad.htmlalbertroad.htmlalbertroad.htmlalbertroad.htmlalbertroad.html<PRE>T:Elzic's Farewell
T:Elzic's Farewell
M:C|
L:1/8
R:reel
D:Flook: Rubai
Z:Devin McCabe
K:ADor
e3e eAdA|~c3d cAGE|ga2a agef|gfga gecA|
!e3e eAdA|~c3d cAGE|A3A AGED|1EGAB A2z2:|2EGAB A2A2-||
!ABAG EGAB|c3d eged|c2dA cAGD|EGAB A2A2-|
!ABAG EGAB|c3d eged|c2dA cAGD|EGAB A2z2|
!:A3G A2cA|cd2d- d_ecA|cd2d- dAcd|d_edc dcA=e|
!GAAG A2cA|cd2d- ddcA|cd2d- dAcd|d_edc A2z2:|
albertroad.htmlalbertroad.htmlalbertroad.htmlalbertroad.htmlalbertroad.htmlalbertroad.htmlalbertroad.html